X:1
T:Gary, 11.11.11 D
T:Gary, 11.11.11 D
T:Philip Phillips, 1880
T:Public Domain Courtesy of the Cyber Hymnal™
C:Philip Phillips, 1880
Z:Public Domain
Z:Courtesy of the Cyber Hymnal™
%%score ( 1 2 ) ( 3 4 )
L:1/8
Q:1/4=88
M:4/4
K:Bb
V:1 treble 
V:2 treble 
V:3 bass 
V:4 bass 
V:1
 [B,D] | [DG]2 [^FA][FA] [GB]2 [Gc][Gc] | [^Fd]2 [FA][FB] G3 [Gd] | %3
 ([Ge][Ec])[EA][EG] ^F2 [DG][EG] | [=EA]2 [EB][EA] [DA]3 [_EF] | [DB]2 [Fd]>[Ec] [DB]2 [DB][DF] | %6
 ([EG][GB])[FA][EG] [DF]3 [EF] | [DB]2 [Fd]>[Ec] [DB]2 [DB][DF] | ([EG][GB])[FA][EG] [DF]3 [DF] | %9
 [DB]2 [Fe][Fe] [Ff]2 [Fd][Fc] | [FB]2 [EA][DB] [Fc]3 [Fd] | e2 [^Fd]>[Dc] [DB]2 [_EA][=EG] | %12
 (GD)[DB][CA] [B,G]3 |] %13
V:2
 x | x8 | x4 G3 x | x4 ^F2 x2 | x8 | x8 | x8 | x8 | x8 | x8 | x8 | (=EG) x6 | D2 x5 |] %13
V:3
 [G,,G,] | [G,,B,]2 [D,D][D,D] [G,D]2 [E,C][E,C] | [D,A,]2 [D,C][D,D] [G,,B,]3 [G,,B,] | %3
 [C,C]2 [C,C][C,B,] [C,A,]2 [B,,G,][C,G,] | [^C,G,]2 [C,G,][C,G,] [D,^F,]3 [=F,A,] | %5
 [B,,B,]2 [B,,B,]>[B,,B,] [B,,B,]2 [B,,B,][B,,B,] | [E,B,]2 [E,B,][E,B,] [B,,B,]3 [F,A,] | %7
 [B,,B,]2 [B,,B,]>[B,,B,] [B,,B,]2 [B,,B,][B,,B,] | [E,B,]2 [E,B,][E,B,] [B,,B,]3 [B,,B,] | %9
 [B,,B,]2 B,[B,C] [B,D]2 [B,,B,][C,A,] | [D,B,]2 [C,F,][B,,F,] [F,A,]3 [G,,G,] | %11
 (CB,) [D,A,]>[F,A,] G,2 [=C,G,][^C,B,] | [D,B,]2 [D,G,][D,^F,] [G,,G,]3 |] %13
V:4
 x | x8 | x8 | x8 | x8 | x8 | x8 | x8 | x8 | x2 B, x5 | x8 | ^C,2 x G,2 x3 | x7 |] %13

